source/assets/images/060517.svg

<svg xmlns="http://www.w3.org/2000/svg" width="68" height="98" viewBox="0 0 68 98">
  <path fill="#1C1C1C" fill-rule="evenodd" d="M67.08,17.4 C67.08,15.0599883 66.4950059,12.8933433 65.325,10.9 C64.1549941,8.9066567 62.5300104,7.1733407 60.45,5.7 C58.3699896,4.2266593 55.9433472,3.056671 53.17,2.19 C50.3966528,1.323329 47.4066827,0.89 44.2,0.89 C41.6866541,0.89 39.4983427,1.1499974 37.635,1.67 C35.7716573,2.1900026 34.0600078,3.0566606 32.5,4.27 C30.5066567,5.7433407 28.3616781,7.7366541 26.065,10.25 C23.7683218,12.7633459 20.9733498,16.0999792 17.68,20.26 L2.86,38.98 L10.53,38.98 L10.53,81.36 C10.53,85.4333537 10.4000013,88.2933251 10.14,89.94 C9.8799987,91.5866749 9.3600039,92.8866619 8.58,93.84 C7.7999961,94.7933381 6.82500585,95.4649981 5.655,95.855 C4.48499415,96.2450019 2.6433459,96.5266658 0.13,96.7 L0.13,98 L45.37,98 L45.37,96.7 C42.3366515,96.6133329 40.1050071,96.375002 38.675,95.985 C37.2449929,95.594998 36.1400039,94.8800052 35.36,93.84 C34.9266645,93.3199974 34.6016677,92.7566697 34.385,92.15 C34.1683323,91.5433303 33.9733342,90.7850045 33.8,89.875 C33.6266658,88.9649955 33.5183336,87.8166736 33.475,86.43 C33.4316664,85.0433264 33.41,83.3533433 33.41,81.36 L33.41,38.98 L44.33,38.98 L47.71,32.87 L33.41,32.87 L33.41,15.58 C33.41,11.5933134 34.0599935,8.45167815 35.36,6.155 C36.6600065,3.85832185 38.4366554,2.71 40.69,2.71 C41.6433381,2.71 42.5099961,3.03499675 43.29,3.685 C44.0700039,4.33500325 44.6333316,5.1799948 44.98,6.22 C45.1533342,6.9133368 45.2833329,7.62832965 45.37,8.365 C45.4566671,9.10167035 45.5433329,10.336658 45.63,12.07 C45.7166671,13.8900091 45.8249994,15.4066606 45.955,16.62 C46.0850006,17.8333394 46.2799987,18.873329 46.54,19.74 C46.8000013,20.606671 47.1033316,21.3433303 47.45,21.95 C47.7966684,22.5566697 48.2733303,23.1633303 48.88,23.77 C50.9600104,26.0233446 53.6466502,27.15 56.94,27.15 C59.8866814,27.15 62.3133238,26.2183427 64.22,24.355 C66.1266762,22.4916573 67.08,20.1733472 67.08,17.4 Z"/>
</svg>

<svg xmlns="http://www.w3.org/2000/svg" width="68" height="98" viewBox="0 0 68 98"><path fill="#1C1C1C" fill-rule="evenodd" d="M67.08 17.4c0-2.34-.585-4.507-1.755-6.5-1.17-1.993-2.795-3.727-4.875-5.2-2.08-1.473-4.507-2.643-7.28-3.51-2.773-.867-5.763-1.3-8.97-1.3-2.513 0-4.702.26-6.565.78-1.863.52-3.575 1.387-5.135 2.6-1.993 1.473-4.138 3.467-6.435 5.98-2.297 2.513-5.092 5.85-8.385 10.01L2.86 38.98h7.67v42.38c0 4.073-.13 6.933-.39 8.58-.26 1.647-.78 2.947-1.56 3.9-.78.953-1.755 1.625-2.925 2.015-1.17.39-3.012.672-5.525.845V98h45.24v-1.3c-3.033-.087-5.265-.325-6.695-.715-1.43-.39-2.535-1.105-3.315-2.145-.433-.52-.758-1.083-.975-1.69-.217-.607-.412-1.365-.585-2.275-.173-.91-.282-2.058-.325-3.445-.043-1.387-.065-3.077-.065-5.07V38.98h10.92l3.38-6.11h-14.3V15.58c0-3.987.65-7.128 1.95-9.425 1.3-2.297 3.077-3.445 5.33-3.445.953 0 1.82.325 2.6.975.78.65 1.343 1.495 1.69 2.535.173.693.303 1.408.39 2.145.087.737.173 1.972.26 3.705.087 1.82.195 3.337.325 4.55.13 1.213.325 2.253.585 3.12.26.867.563 1.603.91 2.21.347.607.823 1.213 1.43 1.82 2.08 2.253 4.767 3.38 8.06 3.38 2.947 0 5.373-.932 7.28-2.795s2.86-4.182 2.86-6.955z"/></svg>
